!!!OTL: Bing nuan ge
!!!ARE: Asia, China,ÿTaiwan, Xinzhu, Miaoli, Taoyuan
!! IV, 645
!!!SCT: C1711
!!!YEM: Copyright 1995, estate of Helmut Schaffrath.
**kern
*ICvox
*Ivox
*M2/4
*k[f#c#g#d#]
*E:
{8.cc#
16ee
8.b
16g#
=1
8g#
16g#
16b
16cc#
16ee
16b
16dd#
=2
2cc#}
=3
{8.cc#
16ee
8.b
16g#
=4
8g#
8cc#
16b
16g#
8f#
=5
4.g#
8r}
=6
{8.cc#
16ee
8.b
16g#
=7
8g#
16g#
16b
16cc#
16ee
8b
=8
8dd#
4cc#
8r}
=9
{8.cc#
16ee
8b
8g#
=10
8g#
8cc#
16b
16g#
8f#
=11
4.g#
8r}
=12
{16cc#
16ee
16b
16dd#
4cc#
=13
16g#
16b
8f#
4g#}
=14
{16cc#
16ee
16b
16dd#
4cc#
=15
16g#
16b
8f#
4g#}
=16
{8g#
4b
8cc#
=17
8g#
16g#
16b
16g#
16f#
8e
=18
8c#
4e
8f#
=19
4.g#
8r}
=20
{8.b
16cc#
16g#
16b
16g#
16f#
=21
16e
16c#
8e
8r
8g#
=22
16f#
16g#
16f#
16e
16cc#
16ee
16g#
16b
=23
8cc#
[4.cc#
=24
4cc#]
4r}
==
!!!AGN: Xiaodiao
!!!AMT: simple duple
!!!AIN: vox
!!!EED: Helmut Schaffrath
!!!EEV: 1.0
*-
!!!ONB: Tied note syntax fixed by Craig Sapp, 2004/05/03/
